outputs/icons/editor/distribute_vertical_round.svg

<svg xmlns="http://www.w3.org/2000/svg" width="1200" height="1200" fill="none"><g clip-path="url(#a)"><path fill="#000" d="M1100 150c0 27.5-22.5 50-50 50H150c-27.5 0-50-22.5-50-50s22.5-50 50-50h900c27.5 0 50 22.5 50 50M350 600c0 41.5 33.5 75 75 75h350c41.5 0 75-33.5 75-75s-33.5-75-75-75H425c-41.5 0-75 33.5-75 75m-250 450c0 27.5 22.5 50 50 50h900c27.5 0 50-22.5 50-50s-22.5-50-50-50H150c-27.5 0-50 22.5-50 50"/></g><defs><clipPath id="a"><path fill="#fff" d="M0 0h1200v1200H0z"/></clipPath></defs></svg>

<svg width="1200" height="1200" viewBox="0 0 1200 1200" fill="none" xmlns="http://www.w3.org/2000/svg"><g clip-path="url(#clip0_238_220)"><path d="M1100 150C1100 177.5 1077.5 200 1050 200H150C122.5 200 100 177.5 100 150C100 122.5 122.5 100 150 100H1050C1077.5 100 1100 122.5 1100 150ZM350 600C350 641.5 383.5 675 425 675H775C816.5 675 850 641.5 850 600C850 558.5 816.5 525 775 525H425C383.5 525 350 558.5 350 600ZM100 1050C100 1077.5 122.5 1100 150 1100H1050C1077.5 1100 1100 1077.5 1100 1050C1100 1022.5 1077.5 1000 1050 1000H150C122.5 1000 100 1022.5 100 1050Z" fill="#1D1E23"/></g><defs><clipPath id="clip0_238_220"><path width="24" fill="white" d="M0 0H1200V1200H0V0z"/></clipPath></defs></svg>
